_includes/icons/ios-right-arrow.svg

<svg fill="#666" height="50" viewBox="0 0 50 50" width="50" xmlns="http://www.w3.org/2000/svg"><path d="m38.035156 13.988281c-.40625-.007812-.777343.234375-.941406.605469-.160156.375-.078125.808594.207031 1.097656l7.976563 8.308594h-43.253906c-.359375-.003906-.695313.183594-.875.496094-.183594.3125-.183594.695312 0 1.007812.179687.3125.515625.5.875.496094h43.253906l-7.976563 8.308594c-.382812.398437-.367187 1.03125.03125 1.414062.398438.382813 1.03125.371094 1.414063-.03125l10.265625-10.691406-10.265625-10.691406c-.183594-.199219-.441406-.3125-.710938-.320313z"/></svg>

<svg xmlns="http://www.w3.org/2000/svg" viewBox="0 0 50 50" width="50" height="50" fill="#666"><path d="M 38.035156 13.988281 C 37.628906 13.980469 37.257813 14.222656 37.09375 14.59375 C 36.933594 14.96875 37.015625 15.402344 37.300781 15.691406 L 45.277344 24 L 2.023438 24 C 1.664063 23.996094 1.328125 24.183594 1.148438 24.496094 C 0.964844 24.808594 0.964844 25.191406 1.148438 25.503906 C 1.328125 25.816406 1.664063 26.003906 2.023438 26 L 45.277344 26 L 37.300781 34.308594 C 36.917969 34.707031 36.933594 35.339844 37.332031 35.722656 C 37.730469 36.105469 38.363281 36.09375 38.746094 35.691406 L 49.011719 25 L 38.746094 14.308594 C 38.5625 14.109375 38.304688 13.996094 38.035156 13.988281 Z"/></svg>
